X: 30301
T: Old Man Dillon
R: jig
M: 6/8
K: Adorian
D|EAG ABd|edB c2A|BGG dGG|(3Bcd B BAG|
EAG ABd|ede a2g|edc Bcd|1 ecA A2G:|2 ecA A2f||
gef g2a|gef g2d|BGG dGG|(3Bcd B BAG|
[1 gef g2a|gef ~g3|edc Bcd|ecA A2f:|
[2 EAG ABd|ede a2g|edc Bcd|ecA A2G||

